X: 358
T: Xioying gaocuang
%%abc-version 2.0
%%abcx-abcm2ps-target-version 5.9.1 (29 Sep 2008)
%%abc-creator hum2abc beta
%%abcx-conversion-date 2013/10/02 07:52:30
%%abc-edited-by Helmut Schaffrath
%%humdrum-veritas 1851341880
%%humdrum-veritas-data 2410346846
%%continueall 1
%%barnumbers 0
L: 1/8
M: 2/4
K: G
A2B A [I:setbarnb 1]| 
G F E D | 
A2d A | 
G F E D | 
A2A2 | 
B2A B | 
G2D E | 
G4 | 
B2G A | 
B2G A | 
B2G A | 
B A/ B/ F E | 
D B, D E | 
B> B A G | 
G B, D E | 
D4 | 
B2G A | 
B A/ B/ F E | 
D B, D E | 
B> B A G | 
G B, D E | 
D4 |]  



